images/notifications-moon.svg

<svg width="34" height="34" viewBox="0 0 34 34" fill="none" xmlns="http://www.w3.org/2000/svg">
<path d="M33.3188 23.7182C31.1967 29.1284 25.01 33.5279 17.8072 33.5279C8.00406 33.5279 0.472412 26.5125 0.472412 16.7326C0.472412 9.77665 4.62677 3.11798 10.8135 0.680426C11.202 0.502068 11.5906 0.472342 11.7998 0.472342C12.4274 0.472342 12.7562 0.977688 12.7562 1.42358C12.7562 1.57221 12.7562 1.81002 12.5768 2.19646C12.0389 3.5936 11.5308 6.23923 11.5308 8.11198C11.5308 17.1488 17.329 22.7967 26.3849 22.7967C28.4471 22.7967 30.5691 22.3508 31.8244 21.9347C32.1233 21.8158 32.3325 21.786 32.5417 21.786C33.0199 21.786 33.528 22.2022 33.528 22.8265C33.528 22.9751 33.4981 23.3615 33.3188 23.7182Z" fill="#3B45FD"/>
</svg>

<svg xmlns="http://www.w3.org/2000/svg" width="34" height="34" fill="none"><path fill="#3B45FD" d="M33.319 23.718c-2.122 5.41-8.309 9.81-15.512 9.81-9.803 0-17.335-7.015-17.335-16.795C.472 9.777 4.627 3.118 10.814.68c.388-.178.777-.208.986-.208.627 0 .956.506.956.952 0 .148 0 .386-.18.772-.537 1.398-1.045 4.043-1.045 5.916 0 9.037 5.798 14.685 14.854 14.685 2.062 0 4.184-.446 5.44-.862.298-.12.508-.149.717-.149.478 0 .986.416.986 1.04 0 .15-.03.535-.21.892"/></svg>
